!!!OTL: Mu&szlig; ich denn ins B&auml;chlein baden (3-72), S. 203
!!!id: P1045
**kern
*clefG2
*k[]
*d:
{8a
8a
=1
4.a
8g
8cc
8b
=2
4a
4g}
=3
{8cc
8b
=4
4.a
8g
8d
8a
=5yy
8g
8f
8d
=6
2e}
=7
{8a
8a
=8
4.d
8e
8f
8d
=9
8e
8f
4e}
=10
{8f
8g
=11
8a
8g
4a
8f
8e
=12
2d}
==
*-
!!!minrhy: 8
!!!meters: 3/4 ]  ZZ[4
!!!cut: Mu&szlig; ich denn ins B&auml;chlein baden (3-72), S. 203
!!!reg: Lothringen
!!!trd: PINCK, Louis: Verklingende Weisen, Bd3, Metz 1933
!!!rhy1: XX  X_.XXX  X_X_
!!!rhy2: XX  X_.X(XXX)  X__
!!!key: P1045  08  D 3/4 ]  ZZ[4
!!!mod: HEPTATONIK DORISCH]  AMBITUS[7b
!!!kad: 4221
!!!akz: 55_52_12_51_
!!!fot: 'a__b__c__d__
!!!for: 'a__b__c__d__
!!!fok: '^d_\__\__^d_
!! PHRAS[AUFTAKTIG]
!!!fkt: Trennung, Suizid
!! LOTH VKL
!! PR[5] 2K[10] 2G[28] 3K[3] 3G[0] 4A[5] 4Ü[0] 5A[0] 6K[0] 6G[0]
!! 7K[0] 7G[0] 8A[0] MEHR[0] SI[45] ABS[40] SR[38] SP[8]
!! ST[16] 2k[13] 2g[30] 3k[3] 3g[0] 4d[0] 4ü[0] 5d[5] 6k[0] 6g[0]
!! 7k[0] 7g[0] 8d[0] mehr[0] si[50] dm[-5] sr[43] sp[8]
!! 1F[22] 2F[46] 3F[10] 4F[0] LF[0] 2P[17] 3P[5] 4P[0] TRI[0] DF[5] AB[41]
!! TF[0] U3K[0] U3[0] U4[0] U4Ü[0] U5[0] U6K[0] U6[0] U7K[5] U7[0]
!! N1[20] N2K[0] N2[17] N3K[20] N3[0] N4[20] N4Ü[0] N5[17] N6K[2] N6[0]
!!!n7k: 0] N7[0] O1[0] O2K[0] O2[0] O3K[0] O3[0] HÖ[0
!!!RNB: symbol: &szlig; = sz ligature (UTF-8: ÃŸ)
!!!RNB: symbol: &auml;      = a umlaut  (UTF-8: Å„)
